X:1
T:Title
%%score { ( 1 2 ) | ( 3 4 ) }
L:1/8
Q:1/4=92
M:4/4
K:Bb
V:1 treble nm="Grand Piano"
V:2 treble 
V:3 bass 
V:4 bass 
V:1
 [DFB]2 FF [B,DG]2 DD | [B,EG][B,F][B,EG][EFA] [DFB]3 [DFB] | %2
w: Lydia~M.~Speidel * * * * *||
 [CFc]2 [CFA][CFA] [DFd]2 [DGB][_DFB] | [CFA]ABG [EAc]4 | [CEA]2 [CEG][CEF] [DFB]2 FF | %5
w: |||
 [EG]GAB [DF]4 | [B,EG]2 AA [B,FB]2 [FAc][FBd] | [FAc][CFA][B,=EA][EG] [F,A,CF]4 | %8
w: |||
 [CEA]2 cA [DFB]2 FF | [Fce][FBd][CGc][_DGB] [CFA]2 z [A,CF] | %10
w: ||
[M:17/16] [B,FB][FAc][FBd][FBd][B,FB][B,F][B,EG]3/2[FG] | %11
w: |
[M:19/16] [EGe][EGd][EAc]>[DFB][DFB]/-[DFB]/-[DFB]/-[DFB]/-[DFB]/-[DFB]-<[DFB] z |] %12
w: |
V:2
 z4 G,4 | x8 | x8 | x8 | x8 | x8 | x8 | x8 | x8 | x8 |[M:17/16] x17/2 |[M:19/16] x19/2 |] %12
V:3
 z2 DD z2 B,B, | [E,,E,][D,,D,][E,,E,][C,,C,] [B,,,B,,]3 [B,,B,] | %2
 [A,,A,]2 [F,,F,]2 [B,,B,]2 [G,,G,]2 | z[K:treble] [CF][C=E][CE][K:bass] [F,,,F,,]4 | %4
 [F,,F,]2 [G,,G,][A,,A,] z2 DD | z[K:treble] EFG[K:bass] [B,,B,]4 | %6
 z2[K:treble] [CF][CF][K:bass] [D,,D,]2 [C,,C,][B,,,B,,] | [C,,C,]2 z B, F,,3 F | %8
 z2[K:treble] [EF][EF][K:bass] z2 DD | [A,,A,][B,,B,][E,,E,][=E,,=E,] [F,,F,]2 z [_E,,_E,] | %10
[M:17/16] [D,,D,][C,,C,][B,,,B,,][B,,,B,,][D,,D,][D,,D,][E,,E,]3/2[D,,D,] | %11
[M:19/16] [C,,C,]-<[C,,C,][F,,F,]>[B,,B,][B,,B,]/-[B,,B,]/-[B,,B,]/-[B,,B,]/-[B,,B,]/-[B,,B,]-<[B,,B,] z |] %12
V:4
 [B,,B,]4 G,,4 | x8 | x8 | [C,,C,]4[K:treble][K:bass] z4 | z4 [B,,B,]4 | %5
 [E,,E,]4[K:treble][K:bass] z4 | [E,,E,]4[K:treble][K:bass] z4 | z2 [C,,C,]2 z4 | %8
 [F,,F,]4[K:treble][K:bass] [B,,B,]4 | x8 |[M:17/16] x17/2 |[M:19/16] x19/2 |] %12

